X:1
T:Le berger et la bergère
T:Nicole Regnes
T:Source : La fleur des chansons à 3---Louvain---P.Phalèse---1574. Editor : André Vierendeels (19/09/18) Notes : Original clefs : C1, C2, C3 Original note values have been halved Editorial accidentals above the staff Composer called Nicolas Reveré in original print. See also: Henri Vanhulst, Catalogue des Editions de musique publiées par P.Phalèse et ses fils (1545-1578) pag 208.                                                                                                                                                                                                                                                                                                                                                                                                                                                                                                                                                                                                                                               Catalogue des Editions de musique publiées à Louvain par P.Phalèse
T:Le berger et la bergère
T:©
T:©
T:©
T:©
T:©
C:Nicole Regnes
Z:©
%%score [ 1 2 3 ]
L:1/8
Q:1/4=96
M:2/2
K:C
V:1 treble nm="Soprano" snm="S"
V:2 treble nm="Alto" snm="A"
V:3 treble-8 nm="Tenor" snm="T"
V:1
 z2 D2 D2 F2 | D2 F3 G A2 | DEFG ADdd | c2 A2 B2 B2 | A2 FF E2 A2 | A2 G2 A2 FA | G2 F2 ED d2- | %7
w: Le ber- ger|et la ber- gè-|re _ _ _ _ _ sont as-|sis pres d'un buys-|son, sont as- sis pres|d'un buys- son, [sont as-|si pres d'un buys- *|
 dc/B/ c2 d4 | z4 z2 D2 | D2 F2 D2 FG | A2 D2 z2 A2 | A2 c2 A2 c2- | cd e2 A2 AA | GGAF E2 EE | %14
w: * * * * son],|ilz|sont si pres l'un de|l'au- tre, ilz|sont si pres l'un|_ de l'au- tre, qu'à grand|pei- ne les voit on, qu'à grand|
 AAGG AGAB | c3 B/A/ B4 | A8 | z2 F2 F2 F2 | EDEF G2 A2 | AG c3 BB A/B/ | c2 CD EFGE | %21
w: pei- ne le voit on, _ _ _|_ _ _ _||la da- me'a|dit à son mi- gnon, la|da- me'a dit à son mi- *|gnon, à _ _ _ _ _|
 F E2 D/C/ D2 D2 | C4 z2 C2 | F3 G A2 G2- | GF F4 E2 | F4 z2 A2 | c2 B2 A2 GF | G4 F4 | z2 A2 A4 | %29
w: son _ _ _ _ mi-|gnon: re-|pre- nons no- stre'al-|* * lei- *|ne,, re-|pre- nons no- stre'al- *|lei- ne,|le loup,|
 z2 c2 c4 | z2 A2 AAAA | AABA GAAG | F2 G2 G2 A2 | F2 ED E4 | D4 z2 A2 | A4 z2 c2 | c4 z2 A2 | %37
w: le loup,|le loup em- por- te|noz mou- tons, mon com- pai- gnon, pour|Dieu, sauvez la lai-||ne, le|loup, le|loup, le|
 AAAA AABA | GAAG F2 G2 | G2 A2 F3 E/D/ | E2 G2 E4 | D8 |] %42
w: loup em- por- te noz mou- tons, mon|com- pai- gnon, pour Dieu, sau-|vez la lai- * *||ne.|
V:2
 D2 D2 F2 D2 | F3 G A2 D2 | d2 d2 c2 B2- |"^#" BA A4 G2 | A4 z2 d2- | d2 d2 c2 A2 | B2 B2 A2 GG | %7
w: Le ber- ger et|la ber- gè- re|sont as- sis pres|_ _ d'un buys-|son, le|_ ber- ger et|la ber- gè- re, as-|
 FDEE D4 | z4 D2 D2 | F2 D2 FG A2 | D2 z2 A2 A2 | c2 A2 c3 d | e2 B2 ddcA | BB A2 AAGG | %14
w: sis pres d'un buys- son,|ilz sont|si pres l'un de l'au-|tre, ilz sont|si pres l'un de|l'au- tre qu'à grand pei- ne|les voit on, qu'à grand pei- ne|
 AF E3 DEF |"^#" GE A4 G2 | A4 z2 A2 | A2 A2 BAGF | G F2 E/D/ E2 F2- | FEDC D2 D2 | CDEF GABG | %21
w: les voit on, qu'à grand pei-|ne les voit- *|on, la|da- me'a dit _ _ _|_ à _ _ son mi-|* * * * gnon, à|son _ _ _ _ _ _ _|
 AG c4 B2 | c8 | z2 A2 c2 B2 | A2 GF G4 | F2 z C F3 G | A2 G3 F F2- | F2 E2 F4 | z2 c2 c4 | %29
w: _ _ _ mi-|gnon:|re- pre- nons|no- stre'al- * lei-|ne, re- pre- nons|no- stre'al- * lei-|* * ne,|le loup,|
 z2 A2 A4 | z2 c2 cccc | ccdc BccB | A2 c2 d2 c2 |"^#" BA d4 c2 | d4 z2 c2 | c4 z2 A2 | A4 z2 c2 | %37
w: le loup,|le loup em- por- te|noz mou- tons, mon com- pai- gnon, pour|Dieu, sau- vez la|lai- * * *|ne, le|loup, le|loup, le|
 cccc ccdc | BccB A2 c2 | d2 c2 B2 AB | cA d4 c2 | d8 |] %42
w: loup em- por- te noz mou- tons, mon|com- pai- gnon, pour Dieu, sau-|vez la lai- * *||ne|
V:3
 z8 | z8 | d2 d2 f2 d2 | f2 f2 e4 | A2 dd c2 d2 | B2 B2 A2 ff | e2 d2 c2 B2 | A4 z2 G2 | %8
w: ||Le ber- ger et|la ber- gè-|re, sont as- sis pres|d'un buys- son, sont as-|sis pres d'un buys-|son, ilz|
 G2 B2 G2 Bc | d2 d2 z2 d2 | d2 f2 d2 f2- | f2 f2 f4 | e4 ddff | ee A2 AAcc | FF c3 Bcd | %15
w: sont si pres l'un de|l'au- tre, ilz|sont si pres l'un|_ de l'au-|tre qu'à grand pei- ne|les voit on, qu'à grand pei- ne|les voit on, qu'à grand pei-|
 e2 f2 e4 | A8 | z2 d2 d2 d2 | c6 F2 | A2 A2 G4 | z2 c2 c2 B2 | A2 A2 G4 | z2 c2 f2 e2 | %23
w: ne les voit|on,|la da- me'a|dit à|son mi- gnon,|a dit à|son mi- gnon:|re- pre- nons|
 d3 c/B/ A2 B2 | c2 d2 c2 c2 | f3 e d3 c/B/ | A2 B2 c2 d2 | c4 F2 f2 | f4 z2 f2 | f4 z2 f2 | %30
w: no- * * * stre'al-|lei- ne, re- pre-|nons no- stre'al- * *|* lei- * *|* ne, le|loup, le|loup, le|
 ffff ffff | ffdd eAcc | d2 c2 B2 A2 | d3 c/B/ A4 | z2 f2 f4 |"^-natural" z2 f2 f4 | z2 f2 ffff | %37
w: loup em- por- te noz mou- tons, mon|com- pai- gnon, pour Dieu, sau- vez la|lai- * * *|* * * ne,|le loup,|le loup,|le loup em- por- te|
 ffff ffdd | eAcc d2 c2 | B2 A2 d3 c/B/ | A2 G2 A4 |"^#" d8 |] %42
w: nos mou- tons, mon com- pai- gnon, pour|Dieu, sau- vez la lai- *|||ne.|

